icons/GooglePlayBooksColor.svg

<svg width="16" height="16" viewBox="0 0 16 16" fill="none" xmlns="http://www.w3.org/2000/svg">
<path d="M15.1239 6.46531L9.09381 2.94891L9.092 8.67354C9.09292 8.7181 9.0811 8.76174 9.05746 8.79809C9.03382 8.83536 9.01109 8.85719 8.9711 8.87355C8.9311 8.8899 8.88838 8.89446 8.84655 8.88537C8.80472 8.87627 8.76656 8.85447 8.73655 8.82265L6.68744 6.73079L4.63196 8.80991C4.60195 8.839 4.56379 8.859 4.52376 8.86629C4.48285 8.87358 4.44105 8.86901 4.40286 8.85174C4.36467 8.83447 4.35469 8.83628 4.33194 8.79993C4.30921 8.76446 4.29647 8.72266 4.29647 8.67902L4.33919 0.177968L4.25283 0.13978C3.12281 -0.344782 1.82007 0.486137 1.82007 1.77433V14.2263C1.82007 15.59 3.28098 16.4418 4.45011 15.76L15.1239 9.53441C16.2921 8.85171 16.2921 7.14715 15.1239 6.46531Z" fill="#1C51A4"/>
<path d="M4.45094 0.2407C4.38639 0.202513 4.32002 0.170694 4.25366 0.141602L4.25731 8.69352C4.25731 8.73624 4.27005 8.77808 4.29277 8.81443C4.31549 8.84989 4.34823 8.87806 4.38642 8.89534C4.4246 8.91261 4.46641 8.91714 4.50732 8.90988C4.54823 8.90259 4.5855 8.8826 4.61551 8.8535L6.6819 6.78893L8.75011 8.85531C8.78013 8.88713 8.81828 8.90893 8.86012 8.91803C8.90195 8.92712 8.94556 8.92256 8.98466 8.90621C9.02374 8.88986 9.05739 8.85984 9.08104 8.82349C9.10468 8.78622 9.1165 8.74258 9.11558 8.69895V2.96256L4.45094 0.2407Z" fill="#80D7FB"/>
</svg>

<svg width="16" height="16" fill="none" xmlns="http://www.w3.org/2000/svg"><path d="M15.124 6.465 9.094 2.95l-.002 5.725a.22.22 0 0 1-.035.124.17.17 0 0 1-.086.076.21.21 0 0 1-.234-.051L6.687 6.73 4.632 8.81a.205.205 0 0 1-.23.042c-.037-.018-.047-.016-.07-.052a.224.224 0 0 1-.036-.121L4.34.178 4.253.14C3.123-.345 1.82.486 1.82 1.774v12.452c0 1.364 1.461 2.216 2.63 1.534l10.674-6.226c1.168-.682 1.168-2.387 0-3.069z" fill="#1C51A4"/><path d="M4.45.24a1.819 1.819 0 0 0-.196-.098l.003 8.552c0 .042.013.084.036.12a.218.218 0 0 0 .093.081.205.205 0 0 0 .23-.041l2.066-2.065L8.75 8.855a.209.209 0 0 0 .33-.032.224.224 0 0 0 .036-.124V2.963L4.45.24z" fill="#80D7FB"/></svg>
